X: 32717
T: Polka With Teeth
R: polka
M: 2/4
K: Bminor
|:Bd/e/ ff|e/d/c/B/ A2|GA/B/ cd-|dc dc|
Bd/e/ ff|e/d/c/B/ A2|GA/B/ c d-|dc B2:|
|:d/e/d/c/ BB|d/e/d/c/ BA|GA/B/ cd-|dc dc|
d/e/d/c/ BB|d/e/d/c/ BA|GA/B/ cd-|dc B2:|

